X:19
T:Milladen
T: From Harp and Claymore
C: J. Scott Skinner
R: strathspey
M:C
L:1/8
Z: Jason R. Fruit <jason@starlight-glimmer>
K:Bminor
F | B2 d>B f>Bd>B | !<(![AA]>c[ee]>!<)!^g {g}a2 e>c | x6 x>g &B2 d>B c>^A B>=G | "^1st"f>ed>c B2- [BF] & "_2nd"F>E D>C B,2-B, :|
c |!>!d2 (f>e) dfad' | !>![AA]2 (c>B) Acea | B2 (d>c) Bdfb | f>ed>c (B2 !tenuto![BF])>c |
!f!!1!d2 (!3!f>!tenuto!!1!d) (3!1!add' (3!1!a!3!f!1!d | [AA]2 (c>!tenuto!A) (3eca (3ecA | B2 d>B c>^AB>G | F>ED>C (B,2!tenuto!B,) |]

